cdn/fa/svgs/sharp-regular/arrow-right-to-bracket.svg

<svg xmlns="http://www.w3.org/2000/svg" viewBox="0 0 512 512"><!--! Font Awesome Pro 6.5.2 by @fontawesome - https://fontawesome.com License - https://fontawesome.com/license (Commercial License) Copyright 2024 Fonticons, Inc. --><path d="M344 80l120 0 0 352-120 0-24 0 0 48 24 0 144 0 24 0 0-24 0-400 0-24-24 0L344 32l-24 0 0 48 24 0zm1 193l17-17-17-17L217 111l-17-17L166.1 128l17 17 87 87L24 232 0 232l0 48 24 0 246.1 0-87 87-17 17L200 417.9l17-17L345 273z"/></svg>

<svg xmlns="http://www.w3.org/2000/svg" viewBox="0 0 512 512"><!--! Font Awesome Pro 6.5.1 by @fontawesome - https://fontawesome.com License - https://fontawesome.com/license (Commercial License) Copyright 2023 Fonticons, Inc. --><path d="M344 80l120 0 0 352H344 320v48h24H488h24V456 56 32H488 344 320V80h24zm1 193l17-17-17-17L217 111l-17-17L166.1 128l17 17 87 87H24 0v48H24 270.1l-87 87-17 17L200 417.9l17-17L345 273z"/></svg>
